svgs/light/watch-fitness.svg

<svg xmlns="http://www.w3.org/2000/svg" viewBox="0 0 384 512"><!--! Font Awesome Pro 6.4.0 by @fontawesome - https://fontawesome.com License - https://fontawesome.com/license (Commercial License) Copyright 2023 Fonticons, Inc. --><path d="M96 48V64H288V48c0-8.8-7.2-16-16-16H112c-8.8 0-16 7.2-16 16zM64 65.6V48C64 21.5 85.5 0 112 0H272c26.5 0 48 21.5 48 48V65.6c36.5 7.4 64 39.7 64 78.4V368c0 38.7-27.5 71-64 78.4V464c0 26.5-21.5 48-48 48l-160 0c-26.5 0-48-21.5-48-48l0-17.6C27.5 439 0 406.7 0 368V144c0-38.7 27.5-71 64-78.4zM96 464c0 8.8 7.2 16 16 16l160 0c8.8 0 16-7.2 16-16V448H96v16zM80 96c-26.5 0-48 21.5-48 48V368c0 26.5 21.5 48 48 48H304c26.5 0 48-21.5 48-48V144c0-26.5-21.5-48-48-48H80zm32 125.3c0 7.8 3.1 15.2 8.6 20.7L192 313.4l71.4-71.4c5.5-5.5 8.6-12.9 8.6-20.7c0-16.2-13.1-29.3-29.3-29.3c-7.8 0-15.2 3.1-20.7 8.6l-18.7 18.7c-6.2 6.2-16.4 6.2-22.6 0l-18.7-18.7c-5.5-5.5-12.9-8.6-20.7-8.6c-16.2 0-29.3 13.1-29.3 29.3zM141.3 160c16.2 0 31.8 6.5 43.3 17.9l7.4 7.4 7.4-7.4c11.5-11.5 27.1-17.9 43.3-17.9c33.8 0 61.3 27.4 61.3 61.3c0 16.2-6.5 31.8-17.9 43.3l-82.7 82.7c-6.2 6.2-16.4 6.2-22.6 0L97.9 264.6C86.5 253.1 80 237.5 80 221.3c0-33.8 27.4-61.3 61.3-61.3z"/></svg>

<svg xmlns="http://www.w3.org/2000/svg" viewBox="0 0 384 512"><!--! Font Awesome Pro 6.3.0 by @fontawesome - https://fontawesome.com License - https://fontawesome.com/license (Commercial License) Copyright 2023 Fonticons, Inc. --><path d="M288.6 269.1L214.2 340.8C201.8 352.8 182.2 352.8 169.8 340.8L95.44 269.1C70.04 244.6 70.04 203.9 95.44 179.5C119.6 156.2 157.8 156.2 181.9 179.5L192 189.2L202.1 179.5C226.2 156.2 264.4 156.2 288.6 179.5C313.1 203.9 313.1 244.6 288.6 269.1H288.6zM192 233.7L159.7 202.5C147.1 191.2 129.4 191.2 117.7 202.5C105.3 214.4 105.3 234.2 117.7 246.1L192 317.8L266.3 246.1C278.7 234.2 278.7 214.4 266.3 202.5C254.6 191.2 236 191.2 224.3 202.5L192 233.7zM64 65.6V48C64 21.49 85.49 0 112 0H272C298.5 0 320 21.49 320 48V65.6C356.5 73.01 384 105.3 384 144V368C384 406.7 356.5 438.1 320 446.4V464C320 490.5 298.5 512 272 512H112C85.49 512 64 490.5 64 464V446.4C27.48 438.1 0 406.7 0 368V144C0 105.3 27.48 73.01 64 65.6zM96 64H288V48C288 39.16 280.8 32 272 32H112C103.2 32 96 39.16 96 48V64zM112 480H272C280.8 480 288 472.8 288 464V448H96V464C96 472.8 103.2 480 112 480zM32 144V368C32 394.5 53.49 416 80 416H304C330.5 416 352 394.5 352 368V144C352 117.5 330.5 96 304 96H80C53.49 96 32 117.5 32 144z"/></svg>
